X: 10621
T: PRINCE OF WALES' HORNPIPE
C: Composed by W.B. Laybourn
R: hornpipe
B: K\"ohler's Violin Repository, v.1, 1885 p.62 #1
F: http://www.archive.org/details/klersviolinrepos01edin
Z: 2012 John Chambers <jc:trillian.mit.edu>
M: C|
L: 1/8
K: Bb
|:\
vd2 (3DFB (d>e) d2 | (d>B)g>f (f2=e2) | _e2 (3EAc de=ef | ^fg^ga b=f=e_e |
 d2 (3DFB (d>e) d2 | (d>B)g>f (f2=e2) | f>(=ea)>g f>e_e>d | c>BA>c B2z2 :|
|:\
vc2 (3EAB (c>d) c2 | (c>A)e>d (c2B2) | d2 (3DFB (d>e) d2 | (d>B)g>f f2 f(g/a/) |
 b2 (3bfd g2 (3gec | f2 (3fdB e2 (3ecA | F>(BA)>(c B)>(gf)>A | B2b2 B2z2 :|

%%sep 2 1 500

